categories/32/preferences-system-sharing.svg

<?xml version="1.0" encoding="UTF-8" standalone="no"?>
<svg
   xmlns:osb="http://www.openswatchbook.org/uri/2009/osb"
   xmlns:dc="http://purl.org/dc/elements/1.1/"
   xmlns:cc="http://creativecommons.org/ns#"
   xmlns:rdf="http://www.w3.org/1999/02/22-rdf-syntax-ns#"
   xmlns:svg="http://www.w3.org/2000/svg"
   xmlns="http://www.w3.org/2000/svg"
   xmlns:xlink="http://www.w3.org/1999/xlink"
   version="1.1"
   width="32"
   height="32"
   id="svg6860">
  <defs
     id="defs6862">
    <linearGradient
       id="linearGradient4309">
      <stop
         offset="0"
         style="stop-color:#f0c1ff;stop-opacity:1"
         id="stop4311" />
      <stop
         offset="0.26238"
         style="stop-color:#c5a3f2;stop-opacity:1"
         id="stop4313" />
      <stop
         offset="0.704952"
         style="stop-color:#7a36b1;stop-opacity:1"
         id="stop4315" />
      <stop
         offset="1"
         style="stop-color:#5f2bac;stop-opacity:1"
         id="stop4317" />
    </linearGradient>
    <linearGradient
       id="linearGradient3924-0">
      <stop
         id="stop3926-6"
         style="stop-color:#ffffff;stop-opacity:1"
         offset="0" />
      <stop
         id="stop3928-3"
         style="stop-color:#ffffff;stop-opacity:0.23529412"
         offset="0.06316455" />
      <stop
         id="stop3930-2"
         style="stop-color:#ffffff;stop-opacity:0.15686275"
         offset="0.95056331" />
      <stop
         id="stop3932-62"
         style="stop-color:#ffffff;stop-opacity:0.39215687"
         offset="1" />
    </linearGradient>
    <linearGradient
       id="linearGradient3688-166-749-6">
      <stop
         id="stop2883-8"
         style="stop-color:#181818;stop-opacity:1"
         offset="0" />
      <stop
         id="stop2885-3"
         style="stop-color:#181818;stop-opacity:0"
         offset="1" />
    </linearGradient>
    <linearGradient
       id="linearGradient3702-501-757-3">
      <stop
         id="stop2895-3"
         style="stop-color:#181818;stop-opacity:0"
         offset="0" />
      <stop
         id="stop2897-28"
         style="stop-color:#181818;stop-opacity:1"
         offset="0.5" />
      <stop
         id="stop2899-8"
         style="stop-color:#181818;stop-opacity:0"
         offset="1" />
    </linearGradient>
    <linearGradient
       id="linearGradient4526"
       osb:paint="solid">
      <stop
         style="stop-color:#ffffff;stop-opacity:1;"
         offset="0"
         id="stop4528" />
    </linearGradient>
    <linearGradient
       x1="23.99999"
       y1="4.999989"
       x2="23.99999"
       y2="43"
       id="linearGradient4161-0"
       xlink:href="#linearGradient3924-0"
       gradientUnits="userSpaceOnUse"
       gradientTransform="matrix(0.67567568,0,0,0.67567568,-0.216217,-0.21620574)" />
    <radialGradient
       cx="6.7304144"
       cy="9.9571075"
       r="12.671875"
       fx="6.2001843"
       fy="9.9571075"
       id="radialGradient5600-7-0"
       xlink:href="#linearGradient4309"
       gradientUnits="userSpaceOnUse"
       gradientTransform="matrix(0,6.5752286,-8.07228,0,96.951919,-56.111443)" />
    <radialGradient
       cx="4.9929786"
       cy="43.5"
       r="2.5"
       fx="4.9929786"
       fy="43.5"
       id="radialGradient2976-2"
       xlink:href="#linearGradient3688-166-749-6"
       gradientUnits="userSpaceOnUse"
       gradientTransform="matrix(2.003784,0,0,1.4,27.98813,-17.4)" />
    <radialGradient
       cx="4.9929786"
       cy="43.5"
       r="2.5"
       fx="4.9929786"
       fy="43.5"
       id="radialGradient2978-5"
       xlink:href="#linearGradient3688-166-749-6"
       gradientUnits="userSpaceOnUse"
       gradientTransform="matrix(2.003784,0,0,1.4,-20.01187,-104.4)" />
    <linearGradient
       y2="39.999443"
       x2="25.058096"
       y1="47.027729"
       x1="25.058096"
       gradientUnits="userSpaceOnUse"
       id="linearGradient5014"
       xlink:href="#linearGradient3702-501-757-3" />
  </defs>
  <metadata
     id="metadata6865">
    <rdf:RDF>
      <cc:Work
         rdf:about="">
        <dc:format>image/svg+xml</dc:format>
        <dc:type
           rdf:resource="http://purl.org/dc/dcmitype/StillImage" />
        <dc:title />
      </cc:Work>
    </rdf:RDF>
  </metadata>
  <g
     style="display:inline"
     id="g2036-2-5"
     transform="matrix(0.6999997,0,0,0.3333336,-0.8000002,15.33333)">
    <g
       style="opacity:0.4"
       id="g3712-3-1"
       transform="matrix(1.052632,0,0,1.285713,-1.263158,-13.42854)">
      <rect
         style="fill:url(#radialGradient2976-2);fill-opacity:1;stroke:none"
         id="rect2801-0-5"
         y="40"
         x="38"
         height="7"
         width="5" />
      <rect
         style="fill:url(#radialGradient2978-5);fill-opacity:1;stroke:none"
         id="rect3696-2-7"
         transform="scale(-1,-1)"
         y="-47"
         x="-10"
         height="7"
         width="5" />
      <rect
         style="fill:url(#linearGradient5014);fill-opacity:1;stroke:none"
         id="rect3700-1-6"
         y="40"
         x="10"
         height="7.0000005"
         width="28" />
    </g>
  </g>
  <rect
     style="color:#000000;display:inline;overflow:visible;visibility:visible;fill:url(#radialGradient5600-7-0);fill-opacity:1;fill-rule:nonzero;stroke:none;stroke-width:0.99999994;marker:none;enable-background:accumulate"
     id="rect5505-9"
     y="2.5000002"
     x="2.5"
     ry="2.1600001"
     rx="2.1600001"
     height="27"
     width="27" />
  <rect
     style="opacity:0.6;fill:none;stroke:url(#linearGradient4161-0);stroke-width:1;stroke-linecap:round;stroke-linejoin:round;stroke-miterlimit:4;stroke-dasharray:none;stroke-dashoffset:0;stroke-opacity:1"
     id="rect6741-7-4-90"
     y="3.5000002"
     x="3.5"
     ry="1.0869565"
     rx="1.0869565"
     height="25"
     width="25" />
  <rect
     style="color:#000000;clip-rule:nonzero;display:inline;overflow:visible;visibility:visible;opacity:0.5;isolation:auto;mix-blend-mode:normal;color-interpolation:sRGB;color-interpolation-filters:linearRGB;solid-color:#000000;solid-opacity:1;fill:none;fill-opacity:1;fill-rule:nonzero;stroke:#6326b9;stroke-width:1;stroke-linecap:butt;stroke-linejoin:miter;stroke-miterlimit:4;stroke-dasharray:none;stroke-dashoffset:0;stroke-opacity:1;marker:none;color-rendering:auto;image-rendering:auto;shape-rendering:auto;text-rendering:auto;enable-background:accumulate"
     id="rect5505-6-5"
     y="2.5000002"
     x="2.4999993"
     ry="2.1600001"
     rx="2.1600001"
     height="27"
     width="27" />
  <path
     id="path8357-1"
     d="m 19.5,10 a 2.5,2.5 0 0 0 -2.5,2.5 2.5,2.5 0 0 0 0.08789,0.654297 l -3.94336,2.464844 A 2.5,2.5 0 0 0 11.5,15 2.5,2.5 0 0 0 9,17.5 2.5,2.5 0 0 0 11.5,20 2.5,2.5 0 0 0 13.101562,19.417969 l 3.97461,2.484375 A 2.5,2.5 0 0 0 17,22.5 2.5,2.5 0 0 0 19.5,25 2.5,2.5 0 0 0 22,22.5 2.5,2.5 0 0 0 19.5,20 2.5,2.5 0 0 0 17.855469,20.621094 L 13.910156,18.154297 A 2.5,2.5 0 0 0 14,17.5 2.5,2.5 0 0 0 13.92383,16.900391 l 3.972656,-2.482422 A 2.5,2.5 0 0 0 19.5,15 2.5,2.5 0 0 0 22,12.5 2.5,2.5 0 0 0 19.5,10 Z"
     style="color:#000000;clip-rule:nonzero;display:inline;overflow:visible;visibility:visible;opacity:0.15;isolation:auto;mix-blend-mode:normal;color-interpolation:sRGB;color-interpolation-filters:linearRGB;solid-color:#000000;solid-opacity:1;fill:#000000;fill-opacity:1;fill-rule:evenodd;stroke:none;stroke-width:2;stroke-linecap:butt;stroke-linejoin:round;stroke-miterlimit:4;stroke-dasharray:none;stroke-dashoffset:0;stroke-opacity:1;color-rendering:auto;image-rendering:auto;shape-rendering:auto;text-rendering:auto;enable-background:accumulate" />
  <path
     style="color:#000000;clip-rule:nonzero;display:inline;overflow:visible;visibility:visible;opacity:0.05;isolation:auto;mix-blend-mode:normal;color-interpolation:sRGB;color-interpolation-filters:linearRGB;solid-color:#000000;solid-opacity:1;fill:#000000;fill-opacity:1;fill-rule:evenodd;stroke:#000000;stroke-width:2;stroke-linecap:butt;stroke-linejoin:round;stroke-miterlimit:4;stroke-dasharray:none;stroke-dashoffset:0;stroke-opacity:1;color-rendering:auto;image-rendering:auto;shape-rendering:auto;text-rendering:auto;enable-background:accumulate"
     d="m 19.5,10 a 2.5,2.5 0 0 0 -2.5,2.5 2.5,2.5 0 0 0 0.08789,0.654297 l -3.94336,2.464844 A 2.5,2.5 0 0 0 11.5,15 2.5,2.5 0 0 0 9,17.5 2.5,2.5 0 0 0 11.5,20 2.5,2.5 0 0 0 13.101562,19.417969 l 3.97461,2.484375 A 2.5,2.5 0 0 0 17,22.5 2.5,2.5 0 0 0 19.5,25 2.5,2.5 0 0 0 22,22.5 2.5,2.5 0 0 0 19.5,20 2.5,2.5 0 0 0 17.855469,20.621094 L 13.910156,18.154297 A 2.5,2.5 0 0 0 14,17.5 2.5,2.5 0 0 0 13.92383,16.900391 l 3.972656,-2.482422 A 2.5,2.5 0 0 0 19.5,15 2.5,2.5 0 0 0 22,12.5 2.5,2.5 0 0 0 19.5,10 Z"
     id="path8359-2" />
  <path
     style="color:#000000;clip-rule:nonzero;display:inline;overflow:visible;visibility:visible;opacity:1;isolation:auto;mix-blend-mode:normal;color-interpolation:sRGB;color-interpolation-filters:linearRGB;solid-color:#000000;solid-opacity:1;fill:#ffffff;fill-opacity:1;fill-rule:evenodd;stroke:none;stroke-width:2;stroke-linecap:butt;stroke-linejoin:round;stroke-miterlimit:4;stroke-dasharray:none;stroke-dashoffset:0;stroke-opacity:1;color-rendering:auto;image-rendering:auto;shape-rendering:auto;text-rendering:auto;enable-background:accumulate"
     d="M 19.5,9.0000003 A 2.5,2.5 0 0 0 17,11.5 a 2.5,2.5 0 0 0 0.08789,0.654297 l -3.94336,2.464844 A 2.5,2.5 0 0 0 11.5,14 2.5,2.5 0 0 0 9,16.5 2.5,2.5 0 0 0 11.5,19 2.5,2.5 0 0 0 13.101562,18.417969 l 3.97461,2.484375 A 2.5,2.5 0 0 0 17,21.5 2.5,2.5 0 0 0 19.5,24 2.5,2.5 0 0 0 22,21.5 2.5,2.5 0 0 0 19.5,19 2.5,2.5 0 0 0 17.855469,19.621094 L 13.910156,17.154297 A 2.5,2.5 0 0 0 14,16.5 2.5,2.5 0 0 0 13.92383,15.900391 l 3.972656,-2.482422 A 2.5,2.5 0 0 0 19.5,14 2.5,2.5 0 0 0 22,11.5 2.5,2.5 0 0 0 19.5,9.0000003 Z"
     id="path8343-1" />
</svg>

<svg xmlns="http://www.w3.org/2000/svg" xmlns:xlink="http://www.w3.org/1999/xlink" viewBox="0 0 32 32"><defs><linearGradient id="b"><stop offset="0" stop-color="#f0c1ff"/><stop offset=".262" stop-color="#c5a3f2"/><stop offset=".705" stop-color="#7a36b1"/><stop offset="1" stop-color="#5f2bac"/></linearGradient><linearGradient id="a"><stop offset="0" stop-color="#fff"/><stop offset=".063" stop-color="#fff" stop-opacity=".235"/><stop offset=".951" stop-color="#fff" stop-opacity=".157"/><stop offset="1" stop-color="#fff" stop-opacity=".392"/></linearGradient><linearGradient id="c"><stop offset="0" stop-color="#181818"/><stop offset="1" stop-color="#181818" stop-opacity="0"/></linearGradient><linearGradient id="d"><stop offset="0" stop-color="#181818" stop-opacity="0"/><stop offset=".5" stop-color="#181818"/><stop offset="1" stop-color="#181818" stop-opacity="0"/></linearGradient><linearGradient x1="24" y1="5" x2="24" y2="43" id="i" xlink:href="#a" gradientUnits="userSpaceOnUse" gradientTransform="translate(-.216 -.216) scale(.67568)"/><radialGradient cx="6.73" cy="9.957" r="12.672" fx="6.2" fy="9.957" id="h" xlink:href="#b" gradientUnits="userSpaceOnUse" gradientTransform="matrix(0 6.57523 -8.07228 0 96.952 -56.11)"/><radialGradient cx="4.993" cy="43.5" r="2.5" fx="4.993" fy="43.5" id="e" xlink:href="#c" gradientUnits="userSpaceOnUse" gradientTransform="matrix(2.00378 0 0 1.4 27.988 -17.4)"/><radialGradient cx="4.993" cy="43.5" r="2.5" fx="4.993" fy="43.5" id="f" xlink:href="#c" gradientUnits="userSpaceOnUse" gradientTransform="matrix(2.00378 0 0 1.4 -20.012 -104.4)"/><linearGradient y2="39.999" x2="25.058" y1="47.028" x1="25.058" gradientUnits="userSpaceOnUse" id="g" xlink:href="#d"/></defs><g opacity=".4"><path fill="url(#e)" d="M38 40h5v7h-5z" transform="matrix(.73684 0 0 .42857 -1.684 10.857)"/><path transform="matrix(-.73684 0 0 -.42857 -1.684 10.857)" fill="url(#f)" d="M-10-47h5v7h-5z"/><path fill="url(#g)" d="M10 40h28v7H10z" transform="matrix(.73684 0 0 .42857 -1.684 10.857)"/></g><rect y="2.5" x="2.5" ry="2.16" rx="2.16" height="27" width="27" color="#000" overflow="visible" fill="url(#h)"/><rect y="3.5" x="3.5" ry="1.087" rx="1.087" height="25" width="25" opacity=".6" fill="none" stroke="url(#i)" stroke-linecap="round" stroke-linejoin="round"/><rect style="isolation:auto;mix-blend-mode:normal" y="2.5" x="2.5" ry="2.16" rx="2.16" height="27" width="27" color="#000" overflow="visible" opacity=".5" fill="none" stroke="#6326b9"/><path d="M19.5 10a2.5 2.5 0 0 0-2.5 2.5 2.5 2.5 0 0 0 .088.654l-3.943 2.465A2.5 2.5 0 0 0 11.5 15 2.5 2.5 0 0 0 9 17.5a2.5 2.5 0 0 0 2.5 2.5 2.5 2.5 0 0 0 1.602-.582l3.974 2.484A2.5 2.5 0 0 0 17 22.5a2.5 2.5 0 0 0 2.5 2.5 2.5 2.5 0 0 0 2.5-2.5 2.5 2.5 0 0 0-2.5-2.5 2.5 2.5 0 0 0-1.645.62l-3.945-2.466A2.5 2.5 0 0 0 14 17.5a2.5 2.5 0 0 0-.076-.6l3.972-2.482A2.5 2.5 0 0 0 19.5 15a2.5 2.5 0 0 0 2.5-2.5 2.5 2.5 0 0 0-2.5-2.5z" style="isolation:auto;mix-blend-mode:normal" color="#000" overflow="visible" opacity=".15" fill-rule="evenodd"/><path style="isolation:auto;mix-blend-mode:normal" d="M19.5 10a2.5 2.5 0 0 0-2.5 2.5 2.5 2.5 0 0 0 .088.654l-3.943 2.465A2.5 2.5 0 0 0 11.5 15 2.5 2.5 0 0 0 9 17.5a2.5 2.5 0 0 0 2.5 2.5 2.5 2.5 0 0 0 1.602-.582l3.974 2.484A2.5 2.5 0 0 0 17 22.5a2.5 2.5 0 0 0 2.5 2.5 2.5 2.5 0 0 0 2.5-2.5 2.5 2.5 0 0 0-2.5-2.5 2.5 2.5 0 0 0-1.645.62l-3.945-2.466A2.5 2.5 0 0 0 14 17.5a2.5 2.5 0 0 0-.076-.6l3.972-2.482A2.5 2.5 0 0 0 19.5 15a2.5 2.5 0 0 0 2.5-2.5 2.5 2.5 0 0 0-2.5-2.5z" color="#000" overflow="visible" opacity=".05" fill-rule="evenodd" stroke="#000" stroke-width="2" stroke-linejoin="round"/><path style="isolation:auto;mix-blend-mode:normal" d="M19.5 9a2.5 2.5 0 0 0-2.5 2.5 2.5 2.5 0 0 0 .088.654l-3.943 2.465A2.5 2.5 0 0 0 11.5 14 2.5 2.5 0 0 0 9 16.5a2.5 2.5 0 0 0 2.5 2.5 2.5 2.5 0 0 0 1.602-.582l3.974 2.484A2.5 2.5 0 0 0 17 21.5a2.5 2.5 0 0 0 2.5 2.5 2.5 2.5 0 0 0 2.5-2.5 2.5 2.5 0 0 0-2.5-2.5 2.5 2.5 0 0 0-1.645.62l-3.945-2.466A2.5 2.5 0 0 0 14 16.5a2.5 2.5 0 0 0-.076-.6l3.972-2.482A2.5 2.5 0 0 0 19.5 14a2.5 2.5 0 0 0 2.5-2.5A2.5 2.5 0 0 0 19.5 9z" color="#000" overflow="visible" fill="#fff" fill-rule="evenodd"/></svg>
